assets/foundersVk.svg

<svg width="23" height="23" viewBox="0 0 23 23" fill="none" xmlns="http://www.w3.org/2000/svg">
<path d="M6.95812 13.055C7.52322 13.8206 8.17233 14.4976 9.01111 14.9765C9.9609 15.5194 10.9836 15.6832 12.0619 15.6333C12.5659 15.6091 12.7175 15.4778 12.7406 14.9756C12.7563 14.6316 12.796 14.2886 12.9653 13.9797C13.1317 13.6764 13.3843 13.6191 13.6755 13.8078C13.8206 13.9029 13.9428 14.0223 14.0583 14.1499C14.3422 14.4597 14.617 14.7805 14.9111 15.0802C15.2808 15.4566 15.7193 15.6784 16.2694 15.6332L18.401 15.6342C18.7441 15.611 18.9225 15.1903 18.7256 14.8063C18.5868 14.5383 18.4048 14.2997 18.2123 14.0684C17.7767 13.545 17.2635 13.0992 16.7782 12.6257C16.3407 12.1987 16.313 11.9508 16.6643 11.4579C17.049 10.9195 17.4614 10.4028 17.8489 9.86725C18.2104 9.36702 18.5814 8.86752 18.7708 8.26929C18.892 7.88744 18.7848 7.7191 18.3946 7.65164C18.3271 7.64053 18.2568 7.64053 18.1884 7.64053L15.8691 7.6377C15.5833 7.63319 15.4261 7.75795 15.3253 8.01127C15.1885 8.35358 15.0478 8.6957 14.8849 9.02499C14.5171 9.77405 14.1054 10.498 13.5285 11.1102C13.4009 11.2451 13.2593 11.4163 13.0467 11.346C12.7813 11.2489 12.7027 10.8107 12.7072 10.6628L12.7053 7.98553C12.6537 7.60368 12.5685 7.43251 12.1886 7.3584L9.7795 7.3584C9.45871 7.3584 9.29678 7.48339 9.12467 7.68393C9.02668 7.80065 8.99611 7.87546 9.19971 7.9143C9.59908 7.99004 9.82564 8.24903 9.88484 8.6496C9.98023 9.29044 9.97363 9.93389 9.9182 10.5766C9.90258 10.7643 9.87015 10.9511 9.79604 11.1268C9.67955 11.4033 9.49091 11.4589 9.244 11.2887C9.02124 11.1353 8.86405 10.919 8.70947 10.7016C8.13159 9.88486 7.67112 9.00469 7.29471 8.07976C7.18649 7.8125 6.99878 7.6508 6.71585 7.64606C6.02032 7.63496 5.3241 7.63328 4.62759 7.64699C4.20974 7.65433 4.08475 7.85794 4.25592 8.23788C5.0133 9.92366 5.85682 11.5623 6.95812 13.055Z" fill="#2F80ED"/>
<path d="M11.5 0V1.85859L21.1414 1.85859V21.1414H11.5V23H23V0L11.5 0Z" fill="#5AAAE7"/>
<path d="M1.85859 21.1414L1.85859 1.85859L11.5 1.85859V0L0 0L0 23H11.5V21.1414H1.85859Z" fill="#78B9EB"/>
</svg>

<svg xmlns="http://www.w3.org/2000/svg" width="23" height="23" fill="none" xmlns:v="https://vecta.io/nano"><path d="M6.958 13.055c.565.766 1.214 1.443 2.053 1.922.95.543 1.972.707 3.05.657.504-.024.656-.155.68-.658.016-.344.055-.687.225-.996.166-.303.42-.36.7-.172.145.095.267.214.383.342l.853.93c.37.376.808.598 1.358.553l2.132.001c.343-.023.52-.444.325-.828-.14-.268-.32-.507-.513-.738-.436-.523-.95-.97-1.434-1.443-.437-.427-.465-.675-.114-1.168l1.185-1.59c.36-.5.732-1 .922-1.598.12-.382.014-.55-.376-.618-.067-.01-.138-.01-.206-.01l-2.32-.003c-.286-.005-.443.12-.544.374l-.44 1.014c-.368.75-.78 1.473-1.356 2.085-.128.135-.27.306-.482.236-.265-.097-.344-.535-.34-.683l-.002-2.677c-.052-.382-.137-.553-.517-.627H9.78c-.32 0-.483.125-.655.326-.098.117-.13.192.075.23.4.076.626.335.685.735.095.64.09 1.284.033 1.927-.016.188-.048.375-.122.55-.116.277-.305.332-.552.162-.223-.153-.38-.37-.535-.587A12.98 12.98 0 0 1 7.295 8.08c-.108-.267-.296-.43-.58-.434-.696-.01-1.392-.013-2.088.001-.418.007-.543.21-.372.59.757 1.686 1.6 3.324 2.702 4.817z" fill="#2f80ed"/><path d="M11.5 0v1.86h9.64V21.14H11.5V23H23V0H11.5z" fill="#5aaae7"/><path d="M1.86 21.14V1.86h9.64V0H0v23h11.5v-1.86H1.86z" fill="#78b9eb"/></svg>
